X:209
T:Brids Bells
O:No 209 Page 102 William Clarke of Feltwell
M:4/4
L:1/8
K:A
a|gfed cBAa|gfedc2Aa|gfed cBAe|a3e^de2::fdBg ecAa|fdBge2Aa|fdBg ecAc|dfBga2Az||

